-- pattern 53
-- 06/29/2018

d1 $ every 5 (|=| speed 1.5)$ every 7 (rattles)$ whenmod 16 15 (slow 2 . stut 8 0.85 0.25)$ fukd
  $ sound (samples "[<feel:6(3,8,5) feel:6(5,8,3)>, <glitch2(4,8,3) glitch(5,8) glitch*8 ~ [glitch*8 ~]>]" (irand 32)) # release 0.2 # gain 1.5

d2 $ sound "[hbd:3(3,8) hbd:6(3,8) hbd:3(5,8) hbd:6 hbd:3(3,8,5) ~ hbd:3(4,8,3) hbd:6*4]/8" # release 0.5 # gain 1.2
